svgs/sharp-light/quote-right.svg

<svg xmlns="http://www.w3.org/2000/svg" viewBox="0 0 448 512"><!--! Font Awesome Pro 6.6.0 by @fontawesome - https://fontawesome.com License - https://fontawesome.com/license (Commercial License) Copyright 2024 Fonticons, Inc. --><path d="M448 304c0 61.9-50.1 112-112 112l-32 0-16 0 0-32 16 0 32 0c44.2 0 80-35.8 80-80l0-16-128 0-32 0 0-32 0-128 0-32 32 0 128 0 32 0 0 32 0 64 0 64 0 32 0 16zm-32-48l0-64 0-64-128 0 0 128 128 0zM32 256l128 0 0-64 0-64L32 128l0 128zm160-64l0 64 0 32 0 16c0 61.9-50.1 112-112 112l-32 0-16 0 0-32 16 0 32 0c44.2 0 80-35.8 80-80l0-16L32 288 0 288l0-32L0 128 0 96l32 0 128 0 32 0 0 32 0 64z"/></svg>

<svg xmlns="http://www.w3.org/2000/svg" viewBox="0 0 448 512"><!--! Font Awesome Pro 6.4.0 by @fontawesome - https://fontawesome.com License - https://fontawesome.com/license (Commercial License) Copyright 2023 Fonticons, Inc. --><path d="M448 304c0 61.9-50.1 112-112 112H304 288V384h16 32c44.2 0 80-35.8 80-80V288H288 256V256 128 96h32H416h32v32 64 64 32 16zm-32-48V192 128H288V256H416zM32 256H160V192 128H32V256zm160-64v64 32 16c0 61.9-50.1 112-112 112H48 32V384H48 80c44.2 0 80-35.8 80-80V288H32 0V256 128 96H32 160h32v32 64z"/></svg>
